X:1
T:Title
%%score { ( 1 4 ) | ( 2 3 ) }
L:1/8
M:3/4
K:Db
V:1 treble nm="Grand Piano"
V:4 treble 
V:2 bass 
V:3 bass 
V:1
 z2 z2[Q:1/4=94] D>E | [A,F]3 F G>F | [A,F] E3 E>F | [CG]3 G E>_F |[M:3/8] F3 |[M:1/4] D>E | %6
[M:3/4] [A,F]3 F A>A | [_CA] G3 [B,D]>E | [A,F]3 D F<E | D4 z2 |[M:1/4] A>A | %11
[M:3/4] [Fd]3 [Fd] [Ge][Gd] | [GB] [FA]3 A>A | [Fd]3 [Fc] [=GB][Ge] |[M:2/4] e4 | %15
[M:11/32] f/4-f/4-f/4-f/4-f/4-f/4-f/-<f/ z/4 | %16
[M:3/4] (7:8:7[Fd]3/4-[Fd]3/2-[Fd]3/8[Fd]3/4[Gd]-[Gd]/8[Ad]3/4 | %17
 (7:8:8d3/4B3/4-B3/2-B3/8c3/8-c-c/8d3/8 | %18
[M:13/16] (5:4:8d3- d/4A3/2-A/8e3/2-e/8A3/2- A/8[Q:1/4=93][Q:1/4=91][Q:1/4=90][Q:1/4=88][Q:1/4=87][Q:1/4=86][Q:1/4=84][Q:1/4=83][Q:1/4=82][Q:1/4=80][Q:1/4=79][Q:1/4=77][Q:1/4=76][Q:1/4=75][Q:1/4=73][Q:1/4=72] | %19
[M:2/4] [Fd]4 |] %20
V:2
 z2 z2 F,>G, | z2 z A, B,>A, | z G,3 A,>A, | z2 z B, C>B, |[M:3/8] [D,A,]3 |[M:1/4] F,>G, | %6
[M:3/4] z2 z A, C>_C | z B,3 z z/ =A,/ | z2 z F, A,<G, | [D,F,]4 z2 |[M:1/4] A,>A, | %11
[M:3/4] [D,A,]3 [D,A,] [D,B,][D,D] | [D,D] [D,D]3 A,>A, | [D,D]3 [D,D] [E,D][E,D] | %14
[M:2/4][K:treble] [A,CG]4 |[M:11/32] A/4-A/4-A/4-A/4-A/4-A/4-A/-<A/ z/4 | %16
[M:3/4][K:bass] (7:8:7[D,A,]3/4-[D,A,]3/2-[D,A,]3/8[D,A,]3/4[E,A,]-[E,A,]/8[F,A,]3/4 | %17
 (7:8:8[G,B,G]3/4[=G,D_F]3/4-[G,DF]3/2-[G,DF]3/8[G,CF]3/8-[G,CF]-[G,CF]/8[G,B,F]3/8 | %18
[M:13/16] [DF]/-[DF]/-[DF]/-[DF]/-[DF]-[DF]/4 z/4 z/ z/ z/ z/ z |[M:2/4][K:bass] [D,A,]4 |] %20
V:3
 x6 | D,6 | A,,4 z2 | A,,6 |[M:3/8] x3 |[M:1/4] x2 |[M:3/4] D,6 | G,4 G,,2 | A,,6 | x6 | %10
[M:1/4] x2 |[M:3/4] x6 | x6 | x6 |[M:2/4][K:treble] x4 | %15
[M:11/32] [A,C]/4-[A,C]/4-[A,C]/4-[A,C]/4-[A,C]/-<[A,C]/[A,CG]3/4 |[M:3/4][K:bass] x6 | x6 | %18
[M:13/16] (5:4:8A,3- A,/4[A,DF]3/2-[A,DF]/8[A,CG]3/2-[A,CG]/8[A,CG]3/2- [A,CG]/8 | %19
[M:2/4][K:bass] x4 |] %20
V:4
 x6 | x6 | x6 | x6 |[M:3/8] x3 |[M:1/4] x2 |[M:3/4] x6 | x6 | x6 | x6 |[M:1/4] x2 |[M:3/4] x6 | %12
 x6 | x6 |[M:2/4] x4 |[M:11/32] z/4 z/4 z/4 z/4 z/4 z/4 z/ e3/4 |[M:3/4] x6 | x6 |[M:13/16] x33/5 | %19
[M:2/4] x4 |] %20

